X:100
T:Marion, the Gaberlunzie man's daughter
T:Mor Nighean a' Ghiobarlain
R:Slow Air
S:Simon Fraser Collection
N:No.209
O:Scottish
M:C
L:1/8
Q:1/4=100
K:F
G2 GB d2 cA|G2 F>G AF D2|F2 FG A2 GF|D2 F>G (FD) C2|
F<A G>F F2 (ef)|~d2 df d>c A2|c>Baf d2 cA|G2 F>G A>G G2||
d>cB>c d2 (ef)|G2 F>G AF D2|A>GF>G A2 (=Bc)|D2 F>G F>D C2|
F<A G>F F2 (ef)|~d2 df d>c A2|c>B Af/>e/ d2 cA|G2 F>G A>G G2||

